X: 21716
T: Kincardine Lighthouse
R: strathspey
M: 4/4
K: Amixolydian
a|"A"e<AA>B "G"G>AB>d|"A"e<A (3Aeg "D"{fg}f>ed<f|"A"e<AA>B "G"G>AB>d|"A"(3edc "G"(3Bcd "A"e<AA:|
B|"A"A<aa>b a/g/f/e/ a>f|"Em"{gf}g>a{a}b>a "G"g>bg<d|"A"e<aa>b a/g/f/e/ a>f|(3edc "G"(3Bcd "A"e<AA>B|
"A"A<aa>b a/g/f/e/ a>f|"Em"{gf}g>a{a}b>a "G"g>bg<d|"Em"(3efg "D"(3fga "G"(3gab "D"(3agf|"A"(3edc "G"(3Bcd "A"e<AA||

